build/assets/images/proyectos/logos/fichas/logo-helvetia.svg

<svg width="200" height="48" viewBox="0 0 200 48" fill="none" xmlns="http://www.w3.org/2000/svg">
<g clip-path="url(#clip0)">
<path d="M7.27279 11.3735V23.3937H7.3738C8.98996 21.1715 11.0102 20.1614 13.7374 20.1614C18.7879 20.1614 21.2122 23.5958 21.2122 28.6463V41.0705H14.1415V30.6665C14.1415 28.3432 13.8384 25.818 10.9092 25.818C8.08087 25.818 7.17178 28.2422 7.17178 30.6665V41.0705H0.101074V11.3735H7.27279Z" fill="white"/>
<path d="M38.6868 27.9391C38.3838 26.02 36.5656 24.7068 34.6464 24.7068C32.6262 24.7068 30.909 25.8179 30.404 27.9391H38.6868ZM45.3535 32.0806H30.404C30.404 35.0099 31.9191 36.626 34.8484 36.626C36.3636 36.626 37.4747 36.121 38.2828 34.8078H45.1514C44.0403 39.5553 39.4949 41.7775 34.9494 41.7775C28.2827 41.7775 23.3333 37.9391 23.3333 30.9695C23.3333 24.2018 27.8787 20.1614 34.4444 20.1614C41.4141 20.1614 45.3535 24.5048 45.3535 31.3735V32.0806Z" fill="white"/>
<path d="M47.3738 41.0705H54.4445V11.3735H47.3738V41.0705" fill="white"/>
<path d="M67.9799 31.1714L72.7274 20.7673H80.7072L70.3031 41.0704H65.6567L55.1516 20.7673H63.1314L67.9799 31.1714Z" fill="white"/>
<path d="M94.3435 27.9391C94.0404 26.02 92.2223 24.7068 90.3031 24.7068C88.2829 24.7068 86.5657 25.8179 86.0606 27.9391H94.3435ZM100.909 32.0806H85.9596C85.9596 35.0099 87.4748 36.626 90.4041 36.626C91.9192 36.626 93.0303 36.121 93.8384 34.8078H100.707C99.596 39.5553 95.0505 41.7775 90.5051 41.7775C83.8384 41.7775 78.8889 37.9391 78.8889 30.9695C78.8889 24.2018 83.4344 20.1614 90 20.1614C96.9697 20.1614 100.909 24.5048 100.909 31.3735V32.0806Z" fill="white"/>
<path d="M111.414 41.0704H104.344V26.727H102.02V20.7674H104.344V14.7068H111.414V20.7674H115.455V26.727H111.414V41.0704" fill="white"/>
<path d="M123.838 41.0704H116.768V20.7673H123.838V41.0704ZM124.343 14.4037C124.343 16.6259 122.525 18.4441 120.404 18.4441C118.182 18.4441 116.465 16.6259 116.465 14.4037C116.465 12.1815 118.283 10.3633 120.404 10.3633C122.525 10.3633 124.343 12.1815 124.343 14.4037Z" fill="white"/>
<path d="M133.232 30.9695C133.232 33.4947 134.949 35.5149 137.778 35.5149C140.707 35.5149 142.323 33.4947 142.323 30.9695C142.323 28.4442 140.606 26.424 137.778 26.424C134.949 26.323 133.232 28.4442 133.232 30.9695ZM149.293 41.0705H142.222V38.8482H142.121C140.909 40.8684 138.384 41.7775 136.06 41.7775C130.101 41.7775 125.959 36.727 125.959 30.9695C125.959 25.2119 130.101 20.1614 135.959 20.1614C138.283 20.1614 140.707 21.0705 142.121 22.7876V20.7674H149.192V41.0705" fill="white"/>
<path d="M166.364 34.1007L174.343 31.9795L176.061 27.9391L172.525 19.6562L171.717 21.6765L166.364 34.1007Z" fill="white"/>
<path d="M184.242 8.14119L180.909 0.56543L172.828 2.38361L176.061 10.0604L184.242 8.14119Z" fill="white"/>
<path d="M171.919 18.4443L172.02 18.1413L175.253 10.6665L172.02 3.3938L159.394 33.2928L165.152 34.3029L171.919 18.4443Z" fill="white"/>
<path d="M175.253 10.6665L175.051 10.2624L172.121 3.29272L172.02 3.39373L175.253 10.6665Z" fill="white"/>
<path d="M174.545 33.0906L167.98 34.7067L179.697 36.828L178.485 33.7977L174.545 33.0906Z" fill="white"/>
<path d="M165.253 35.4138L163.03 35.0097H163.131L158.889 34.2017L156.263 40.6663L183.535 45.6158L180.303 38.0401L165.253 35.4138Z" fill="white"/>
<path d="M163.232 34.9087L158.889 34.2017L163.131 35.0097L163.232 34.9087Z" fill="white"/>
<path d="M163.131 35.0098H163.03L165.253 35.4138L165.151 35.3128L163.131 35.0098Z" fill="white"/>
<path d="M165.757 35.414L165.454 35.313L165.252 35.414L180.303 38.0402V37.9392L165.757 35.414Z" fill="white"/>
<path d="M165.252 35.414L165.454 35.313H165.151L165.252 35.414Z" fill="white"/>
<path d="M165.152 35.313L163.232 34.9089L163.131 35.0099L165.152 35.313Z" fill="white"/>
<path d="M165.455 35.313L165.758 35.414L165.455 35.313Z" fill="white"/>
<path d="M176.465 11.0706L178.485 15.717L191.919 47.0302L199.899 44.7069L184.646 9.15137L180.606 10.0605L176.465 11.0706Z" fill="white"/>
<path d="M180.606 10.0605L184.646 9.15137L180.606 10.0605Z" fill="white"/>
<path d="M173.131 18.3432L177.172 27.8381V27.9391L181.111 37.0301L182.626 40.6664L184.849 45.8179L190.808 46.929L181.818 25.9189L175.758 12.0806L173.131 18.3432Z" fill="white"/>
<path d="M177.172 27.9392V27.8382L173.131 18.3433L173.03 18.4443L177.172 27.9392Z" fill="white"/>
<path d="M175.758 12.0805V11.9795L173.03 18.2421L173.131 18.3431L175.758 12.0805Z" fill="white"/>
<path d="M173.03 18.4442L173.131 18.3432L173.03 18.2422V18.3432V18.4442Z" fill="white"/>
<path d="M181.111 37.03L182.626 40.6664L181.111 37.03Z" fill="white"/>
<path d="M190.808 46.9291L181.818 25.9189L190.808 46.9291Z" fill="white"/>
</g>
<defs>
<clipPath id="clip0">
<rect width="200" height="47.4747" fill="white" transform="translate(0 0.161377)"/>
</clipPath>
</defs>
</svg>

<svg width="200" height="48" fill="none" xmlns="http://www.w3.org/2000/svg"><g clip-path="url(#clip0)" fill="#fff"><path d="M7.273 11.373v12.02h.1c1.617-2.221 3.637-3.232 6.364-3.232 5.05 0 7.475 3.435 7.475 8.485v12.425h-7.07V30.667c0-2.324-.304-4.849-3.233-4.849-2.828 0-3.737 2.424-3.737 4.848v10.405H.102V11.374h7.17zM38.687 27.94c-.303-1.92-2.121-3.233-4.04-3.233-2.02 0-3.738 1.11-4.243 3.232h8.283zm6.666 4.14H30.404c0 2.93 1.515 4.546 4.444 4.546 1.516 0 2.627-.505 3.435-1.818h6.868c-1.11 4.747-5.656 6.97-10.202 6.97-6.666 0-11.616-3.839-11.616-10.808 0-6.768 4.546-10.809 11.111-10.809 6.97 0 10.91 4.344 10.91 11.212v.708zm2.021 8.99h7.07V11.374h-7.07v29.698m20.606-9.901l4.747-10.404h7.98L70.303 41.07h-4.646L55.152 20.767h7.98l4.848 10.404zm26.364-3.231c-.304-1.92-2.122-3.233-4.04-3.233-2.021 0-3.738 1.11-4.243 3.232h8.282zm6.565 4.14h-14.95c0 2.93 1.516 4.546 4.445 4.546 1.515 0 2.626-.505 3.434-1.818h6.869c-1.111 4.747-5.656 6.97-10.202 6.97-6.667 0-11.616-3.839-11.616-10.808 0-6.768 4.545-10.809 11.111-10.809 6.97 0 10.909 4.344 10.909 11.212v.708zm10.505 8.99h-7.07V26.727h-2.324v-5.96h2.324v-6.06h7.07v6.06h4.041v5.96h-4.041V41.07m12.424 0h-7.07V20.767h7.07V41.07zm.505-26.666c0 2.222-1.818 4.04-3.939 4.04-2.222 0-3.939-1.818-3.939-4.04 0-2.223 1.818-4.04 3.939-4.04s3.939 1.817 3.939 4.04zm8.889 16.566c0 2.525 1.717 4.545 4.546 4.545 2.929 0 4.545-2.02 4.545-4.546 0-2.525-1.717-4.545-4.545-4.545-2.829-.101-4.546 2.02-4.546 4.546zm16.061 10.1h-7.071v-2.222h-.101c-1.212 2.02-3.737 2.93-6.061 2.93-5.959 0-10.101-5.051-10.101-10.808 0-5.758 4.142-10.809 10-10.809 2.324 0 4.748.91 6.162 2.627v-2.02h7.071V41.07m17.172-6.97l7.979-2.12 1.718-4.04-3.536-8.284-.808 2.02-5.353 12.425zm17.878-25.959L180.909.565l-8.081 1.819 3.233 7.676 8.181-1.919zm-12.323 10.303l.101-.303 3.233-7.474-3.233-7.273-12.626 29.899 5.758 1.01 6.767-15.859z"/><path d="M175.253 10.666l-.202-.404-2.93-6.97-.101.102 3.233 7.272zm-.708 22.424l-6.565 1.617 11.717 2.121-1.212-3.03-3.94-.707zm-9.292 2.324l-2.223-.404h.101l-4.242-.808-2.626 6.464 27.272 4.95-3.232-7.576-15.05-2.626z"/><path d="M163.232 34.909l-4.343-.707 4.242.808.101-.101zm-.101.101h-.101l2.223.404-.102-.101-2.02-.303z"/><path d="M165.757 35.414l-.303-.101-.202.101 15.051 2.626v-.1l-14.546-2.526z"/><path d="M165.252 35.414l.202-.101h-.303l.101.101zm-.1-.101l-1.92-.404-.101.1 2.021.304zm.303 0l.303.101-.303-.101zm11.01-24.243l2.02 4.647 13.434 31.313 7.98-2.323L184.646 9.15l-4.04.91-4.141 1.01z"/><path d="M180.606 10.06l4.04-.909-4.04.91zm-7.475 8.283l4.041 9.495v.101l3.939 9.091 1.515 3.636 2.223 5.152 5.959 1.111-8.99-21.01-6.06-13.838-2.627 6.262z"/><path d="M177.172 27.94v-.102l-4.041-9.495-.101.101 4.142 9.495zm-1.414-15.86v-.1l-2.728 6.262.101.101 2.627-6.262z"/><path d="M173.03 18.444l.101-.1-.101-.102v.202zm8.081 18.586l1.515 3.636-1.515-3.636zm9.697 9.9l-8.99-21.011 8.99 21.01z"/></g><defs><clipPath id="clip0"><path fill="#fff" transform="translate(0 .161)" d="M0 0h200v47.475H0z"/></clipPath></defs></svg>
